contributed-vectors/real_cricket.svg

<svg width="192" height="192" viewBox="0 0 192 192" fill="none" xmlns="http://www.w3.org/2000/svg">
<path fill-rule="evenodd" clip-rule="evenodd" d="M82 14C20 14 20 84 20 84V87H163V84H144C144 84 142 14 82 14Z" fill="#728DBE"/>
<path fill-rule="evenodd" clip-rule="evenodd" d="M38.3181 73V80H44.5908V73H84.3181V80H90.5908V73H100V87H31V73H38.3181Z" fill="white"/>
<path d="M32.5 86.5C32.5 86.5 33.7506 89.7423 36.2667 94.375M142 172.5C142 172.5 136.495 172.041 133 171.5C131.918 171.332 121.283 165.035 107.5 156.04M142 172.5L161.5 140.5M142 172.5L127 156.04H107.5M161.5 140.5V120C161.5 118.895 160.605 118 159.5 118H98M161.5 140.5H84.6234M98 118L76.5 134.64M98 118H55.4193M98 118V105.25M98 86.5V94.375M76.5 134.64C79.1793 136.61 81.8991 138.57 84.6234 140.5M76.5 134.64C68.8677 129.028 61.5637 123.333 55.4193 118M84.6234 140.5C92.501 146.082 100.416 151.417 107.5 156.04M55.4193 118C54.0524 116.814 52.7429 115.645 51.5 114.5C47.3343 110.661 46.2897 109.334 43.5 105.25M98 105.25H43.5M98 105.25V94.375M43.5 105.25C41.5726 102.429 37.5419 96.7232 36.2667 94.375M98 94.375H36.2667" stroke="white" stroke-width="3"/>
<path d="M106.117 144.351C106.289 144.098 106.223 143.754 105.97 143.583L25.9084 89.2625C25.9084 89.2625 21.8198 90.7754 18.6899 95.3885C15.56 100.002 15.6651 104.36 15.6651 104.36L95.7269 158.68C95.9796 158.852 96.3234 158.786 96.4948 158.533C98.2091 156.006 101.647 155.348 104.174 157.062L131.471 175.583C131.471 175.583 133.426 178.134 135.096 179.267C136.766 180.4 139.859 181.273 139.859 181.273L143.273 176.241C143.273 176.241 141.318 173.69 139.648 172.557C137.978 171.424 134.885 170.55 134.885 170.55L107.588 152.03C105.062 150.315 104.403 146.877 106.117 144.351Z" fill="#E2C9B0"/>
<path d="M106.154 144.295C106.465 143.837 106.078 143.272 105.55 143.438C103.492 144.084 99.725 145.647 97.532 148.88C95.339 152.112 95.2783 156.19 95.4385 158.341C95.4796 158.893 96.1472 159.044 96.4582 158.586C98.1929 156.029 101.672 155.363 104.228 157.098L131.471 175.581C131.471 175.581 133.426 178.132 135.096 179.265C136.766 180.399 139.859 181.272 139.859 181.272L143.273 176.239C143.273 176.239 141.319 173.689 139.649 172.555C137.978 171.422 134.886 170.549 134.886 170.549L107.643 152.065C105.086 150.33 104.42 146.852 106.154 144.295Z" fill="#728DBE"/>
</svg>

<svg xmlns="http://www.w3.org/2000/svg" width="192" height="192" fill="none"><path fill="#728DBE" fill-rule="evenodd" d="M82 14c-62 0-62 70-62 70v3h143v-3h-19s-2-70-62-70Z" clip-rule="evenodd"/><path fill="#fff" fill-rule="evenodd" d="M38.318 73v7h6.273v-7h39.727v7h6.273v-7H100v14H31V73h7.318Z" clip-rule="evenodd"/><path stroke="#fff" stroke-width="3" d="M32.5 86.5s1.25 3.242 3.767 7.875M142 172.5s-5.505-.459-9-1c-1.082-.168-11.717-6.465-25.5-15.46M142 172.5l19.5-32m-19.5 32-15-16.46h-19.5m54-15.54V120a2 2 0 0 0-2-2H98m63.5 22.5H84.623M98 118l-21.5 16.64M98 118H55.42M98 118v-12.75m0-18.75v7.875M76.5 134.64c2.68 1.97 5.4 3.93 8.123 5.86m-8.123-5.86c-7.632-5.612-14.936-11.307-21.08-16.64m29.203 22.5a733.265 733.265 0 0 0 22.877 15.54M55.42 118a176.906 176.906 0 0 1-3.92-3.5c-4.166-3.839-5.21-5.166-8-9.25m54.5 0H43.5m54.5 0V94.375M43.5 105.25c-1.927-2.821-5.958-8.527-7.233-10.875m61.733 0H36.267"/><path fill="#E2C9B0" d="M106.117 144.351a.552.552 0 0 0-.147-.768l-80.062-54.32s-4.088 1.512-7.218 6.125c-3.13 4.614-3.025 8.972-3.025 8.972l80.062 54.32a.552.552 0 0 0 .768-.147 5.529 5.529 0 0 1 7.679-1.471l27.297 18.521s1.955 2.551 3.625 3.684 4.763 2.006 4.763 2.006l3.414-5.032s-1.955-2.551-3.625-3.684-4.763-2.007-4.763-2.007l-27.297-18.52a5.53 5.53 0 0 1-1.471-7.679Z"/><path fill="#728DBE" d="M106.154 144.295c.311-.458-.076-1.023-.604-.857-2.058.646-5.825 2.209-8.018 5.442-2.193 3.232-2.254 7.31-2.093 9.461.04.552.708.703 1.02.245a5.593 5.593 0 0 1 7.769-1.488l27.243 18.483s1.955 2.551 3.625 3.684c1.67 1.134 4.763 2.007 4.763 2.007l3.414-5.033s-1.954-2.55-3.624-3.684c-1.671-1.133-4.763-2.006-4.763-2.006l-27.243-18.484a5.594 5.594 0 0 1-1.489-7.77Z"/></svg>
